X: 16
T: Missa La belle se siet / Agnus Dei
N: Derived from Ort1003e-Missa_La_belle_se_siet-Agnus.krn
C: Marbrianus de Orto
%%abc-version 2.0
%%abcx-abcm2ps-target-version 5.9.1 (29 Sep 2008)
%%abc-creator hum2abc beta
%%abcx-conversion-date 2019/02/17 07:28:37
%%abc-edited-by Jesse Rodin
%%abc-edited-by Jesse Rodin 8/10/2013
%%abcx-initial-encoding-date 2013/08/11/
%%humdrum-veritas 1154778214
%%humdrum-veritas-data 1127473483
%%linebreak <none>
%%barnumbers 0
L: 1/4
M: 3/1
Q: 1/2=120
%%staves [1 2 3 4]
V: 1 clef=treble
V: 2 clef=treble-8
V: 3 clef=treble-8
V: 4 clef=bass
K: F
[V:1] F8F4 | 
[V:2] F4F3GA2B2- | 
[V:3] z12 | 
[V:4] z12 | 
[V:1] G3AB2A4G2 | 
[V:2] B2c2d2c2B4 | 
[V:3] z12 | 
[V:4] z12 | 
[V:1] A8A4 | 
[V:2] A2c3Fc2d2c2- | 
[V:3] F8F4 | 
[V:4] z12 | 
[V:1] c8B3A/G/ | 
[V:2] c2f2e2c2d4- | 
[V:3] F3GA4G2B2- | 
[V:4] z12 | 
[V:1] F2G2A2G4^F2 | 
[V:2] d4d4d4 | 
[V:3] B2G2F2G2A4 | 
[V:4] z4z4D,4 | 
[V:1] G4z4G4 | 
[V:2] B2c4d2G2c2 | 
[V:3] G2C2E2F2E4 | 
[V:4] _E,3D,C,2B,,2C,4 | 
[V:1] B4A2B4AG | 
[V:2] d3ef2B2d4 | 
[V:3] DEFGA2G2F2B2 | 
[V:4] B,,2A,,G,,F,,2G,,2B,,3C, | 
[V:1] F3GA2B2G2A2 | 
[V:2] d3Bc2B3cd2 | 
[V:3] A4F2G2z2F2 | 
[V:4] D,4z2_E,4D,2 | 
[V:1] GFEDC2F4E2 | 
[V:2] B2c3Ad2c4 | 
[V:3] G4A2B2G4 | 
[V:4] _E,2C,2F,2B,,2C,4 | 
[V:1] F4z4z4 | 
[V:2] A4G2E2D3C | 
[V:3] F3G/A/B2A4G2 | 
[V:4] z2F,,2G,,2A,,2B,,4 | 
[V:1] c4d2c2B4 | 
[V:2] E2C2z2c2d3B | 
[V:3] A4D2F4E2 | 
[V:4] A,,4B,,2A,,2G,,4 | 
[V:1] A12 | 
[V:2] c2d4c2f3e | 
[V:3] F4E4D3E | 
[V:4] z4A,,4D,4 | 
[V:1] z4z4c4 | 
[V:2] d2c2B4A2F2 | 
[V:3] FGA4G2A4 | 
[V:4] z4z4A,,4 | 
[V:1] d3cBAA4G2 | 
[V:2] f3ed2c2B4 | 
[V:3] D4z4z4 | 
[V:4] B,,6C,2D,2E,2 | 
[V:1] A4z4z4 | 
[V:2] A2c2B2A4G2 | 
[V:3] z12 | 
[V:4] F,3E,D,2C,2B,,4 | 
[V:1] c3BA2G2F3E | 
[V:2] A2c4C2D4 | 
[V:3] A3GF2E2A3G | 
[V:4] A,,4z4z4 | 
[V:1] A3GF2E2D4 | 
[V:2] D2F4C2G4 | 
[V:3] FED3Cc4=B2 | 
[V:4] z4z4G,,4 | 
[V:1] CDEFG2F4E2 | 
[V:2] E2C2z2c2d2c2- | 
[V:3] c4B2A2G4 | 
[V:4] A,,4G,,2A,,2B,,2C,2 | 
[V:1] c4B2A2G4 | 
[V:2] cdefg2f4e2 | 
[V:3] z2A2G2A2B2c2 | 
[V:4] A,,4z4z4 | 
[V:1] F2B3AGFE4 | 
[V:2] f4f2e2c4 | 
[V:3] d4D2E2G4 | 
[V:4] B,,4B,,2C,4C,2 | 
[V:1] A3GFED2C2G2- | 
[V:2] A2d3cA2z2c2 | 
[V:3] F4A6G2 | 
[V:4] D,4D,2F,4E,2 | 
[V:1] GFF3EE2z2C2 | 
[V:2] c3BBAc2z2G2 | 
[V:3] E2F2z2G2A2EF | 
[V:4] C,2D,4C,4C,2 | 
[V:1] E2D2G2F2G3A | 
[V:2] c2d2_e2d2B2_e2- | 
[V:3] GAB2G2B4B2 | 
[V:4] C,2B,,2C,2D,2_E,4 | 
[V:1] B4B2B4AG | 
[V:2] edB2z2_e2d4- | 
[V:3] G4z4F2B2 | 
[V:4] _E,2E,4D,C,B,,3C, | 
[V:1] F2G3FE2D4 | 
[V:2] d2B2c4z4 | 
[V:3] A2G2z2A3GGF | 
[V:4] D,2_E,2C,4B,,4 | 
[V:1] C2c3BAGB2A2- | 
[V:2] F3GABc2G2c2- | 
[V:3] A4z4z4 | 
[V:4] z4F,4G,2F,2 | 
[V:1] AGG4^F2G2A2- | 
[V:2] c2c2d4B2A2 | 
[V:3] G4A4G2c2- | 
[V:4] _E,4D,4z2F,2- | 
[V:1] AFB2A2G2z2F2- | 
[V:2] z12 | 
[V:3] cAd3cc2B3A | 
[V:4] F,2G,2F,2E,4D,2- | 
[V:1] FEDCG2A3GFE | 
[V:2] z4z2A2c4 | 
[V:3] F2A2G2F2z2A2 | 
[V:4] D,2F,2E,2D,2C,4 | 
[V:1] D2C4F3EED | 
[V:2] F4c2B2c4- | 
[V:3] B2A2G2F2G4 | 
[V:4] B,,2F,2E,2D,2C,4 | 
[V:1] F12 ||  
[V:2] c12 ||  
[V:3] F12 ||  
[V:4] F,,12 ||  
[V:1]  [K:F] [K:clef=treble][M:2/1]z8 | 
[V:2]  [K:F] [K:clef=treble-8][M:2/1]z8 | 
[V:3]  [K:F] [K:clef=treble-8][M:2/1]z8 | 
[V:4]  [K:F] [K:clef=bass][M:2/1]F,,8- | 
[V:1] z8 | 
[V:2] z8 | 
[V:3] F4E2D2 | 
[V:4] F,,4G,,4- | 
[V:1] z8 | 
[V:2] z8 | 
[V:3] G3FE2D2 | 
[V:4] G,,8 | 
[V:1] z8 | 
[V:2] z8 | 
[V:3] C2F2E2A2- | 
[V:4] A,,8 | 
[V:1] z8 | 
[V:2] z8 | 
[V:3] AGFED3E | 
[V:4] C,4B,,4 | 
[V:1] z8 | 
[V:2] z8 | 
[V:3] F2G4^F2 | 
[V:4] A,,8 | 
[V:1] D6EF | 
[V:2] B8 | 
[V:3] G8 | 
[V:4] G,,8 | 
[V:1] G2FED2F2 | 
[V:2] B4B4- | 
[V:3] z8 | 
[V:4] z8 | 
[V:1] G4G4 | 
[V:2] B2c2B2AG | 
[V:3] z8 | 
[V:4] z8 | 
[V:1] A8 | 
[V:2] F4z4 | 
[V:3] z8 | 
[V:4] D,3C,D,E,F,2- | 
[V:1] B4A2c2 | 
[V:2] z4c2BA | 
[V:3] z8 | 
[V:4] F,2E,2F,4 | 
[V:1] BAGFG4 | 
[V:2] GFf4e2 | 
[V:3] z4c4 | 
[V:4] z8 | 
[V:1] F4z4 | 
[V:2] f4z4 | 
[V:3] d6c2 | 
[V:4] B,,6A,,2 | 
[V:1] z8 | 
[V:2] z8 | 
[V:3] d2c2B4 | 
[V:4] G,,2A,,4G,,2 | 
[V:1] EFGAB2A2 | 
[V:2] c4d2c2- | 
[V:3] A4z4 | 
[V:4] A,,4z4 | 
[V:1] G2A2GFED | 
[V:2] c2BAB4 | 
[V:3] z8 | 
[V:4] z8 | 
[V:1] C4z4 | 
[V:2] A4z4 | 
[V:3] z2c2d3c | 
[V:4] F,6E,2 | 
[V:1] z8 | 
[V:2] z8 | 
[V:3] B2A4G2 | 
[V:4] D,2C,2B,,4 | 
[V:1] z8 | 
[V:2] c2def2e2- | 
[V:3] A8 | 
[V:4] A,,2C,2D,2C,2 | 
[V:1] z8 | 
[V:2] e2d4^c2 | 
[V:3] D4E4 | 
[V:4] B,,4A,,4 | 
[V:1] z2A4G2 | 
[V:2] d3cB4 | 
[V:3] D4E4 | 
[V:4] z8 | 
[V:1] c4B2A2 | 
[V:2] A4z2c2- | 
[V:3] F2C2D2F2- | 
[V:4] F,,2A,,2G,,2F,,2 | 
[V:1] G4z2A2- | 
[V:2] c2c2A2F2 | 
[V:3] F2E2F4 | 
[V:4] C,4D,3C, | 
[V:1] A2G2c4 | 
[V:2] z4z2A2 | 
[V:3] D4C2c2 | 
[V:4] B,,4A,,4 | 
[V:1] B2A2G4 | 
[V:2] G2F2E4 | 
[V:3] d4z2c2 | 
[V:4] z8 | 
[V:1] z2A4G2 | 
[V:2] D4d4 | 
[V:3] d3cB4 | 
[V:4] z8 | 
[V:1] c4B2A2 | 
[V:2] e2f2d2f2 | 
[V:3] A4z2c2- | 
[V:4] z2F,,2G,,2F,,2 | 
[V:1] G4c3B | 
[V:2] e6f2- | 
[V:3] c2c3BAG | 
[V:4] C,3B,,A,,G,,F,,2 | 
[V:1] AGA4GF | 
[V:2] fedcd2A2 | 
[V:3] F4F3G | 
[V:4] F,3E,D,C,D,2 | 
[V:1] E2F4E2 | 
[V:2] c2d2c4 | 
[V:3] A2B2G4 | 
[V:4] C,2B,,2C,4 | 
[V:1] F8- | 
[V:2] A3Bc2F2- | 
[V:3] F8 | 
[V:4] F,,3G,,A,,2B,,2 | 
[V:1] F8 | 
[V:2] FGA2B2c2 | 
[V:3] z2F3GA2 | 
[V:4] F,,4B,,2A,,2 | 
[V:1] G8- | 
[V:2] d2e2d4 | 
[V:3] B2c4=B2 | 
[V:4] G,,2C,2G,,4 | 
[V:1] G8 | 
[V:2] e2d2c4 | 
[V:3] c2d2e4 | 
[V:4] C,2B,,2C,4 | 
[V:1] B4A2c2- | 
[V:2] z2G2c3B | 
[V:3] d4z4 | 
[V:4] G,,4z4 | 
[V:1] cBAGF2B2 | 
[V:2] AGF2B2G2 | 
[V:3] z8 | 
[V:4] z8 | 
[V:1] A2G4^F2 | 
[V:2] F2G2A4 | 
[V:3] z8 | 
[V:4] z4D,4 | 
[V:1] G4z4 | 
[V:2] G4z4 | 
[V:3] B4G2c2- | 
[V:4] E,3D,E,2C,2 | 
[V:1] z8 | 
[V:2] z8 | 
[V:3] cBAGF2B2 | 
[V:4] F,3E,D,C,B,,2 | 
[V:1] z4c4 | 
[V:2] z8 | 
[V:3] A2G4^F2 | 
[V:4] C,2G,,2A,,4 | 
[V:1] B3AGFED | 
[V:2] D2GFEDC2 | 
[V:3] G4c3B | 
[V:4] G,,4z2C,2- | 
[V:1] C2c3BAG | 
[V:2] c3BAGc2 | 
[V:3] AGF2z2F2 | 
[V:4] C,B,,A,,G,,F,,2F,E, | 
[V:1] F2B3AGF | 
[V:2] d4z2G2 | 
[V:3] B3AGFED | 
[V:4] D,C,B,,2z2C,2- | 
[V:1] E2F4E2 | 
[V:2] c8- | 
[V:3] C2F2G4 | 
[V:4] C,2F,,2C,4 | 
[V:1] F8 ||  
[V:2] c8 ||  
[V:3] F8 ||  
[V:4] F,,8 ||  
[V:1]  [K:F] [K:clef=treble][M:2/1]C8- :
[V:2]  [K:F] [K:clef=treble-8][M:2/1]z8 | 
[V:3]  [K:F] [K:clef=treble-8][M:2/1]z8 | 
[V:4]  [K:F] [K:clef=bass][M:2/1]F,4C,2F,2- | 
[V:1] C8 :
[V:2] z4F2ED | 
[V:3] z4A4 | 
[V:4] F,2E,2F,2F,,2 | 
[V:1] C8 | 
[V:2] C2F2E4 | 
[V:3] E2A4G2 | 
[V:4] z8 | 
[V:1] D8- :
[V:2] D3EFGA2 | 
[V:3] F2B4A2 | 
[V:4] B,,3C,D,E,F,D, | 
[V:1] D8 :
[V:2] B3cd3c | 
[V:3] G3ABcd2- | 
[V:4] G,2G,,3A,,B,,2 | 
[V:1] D8 | 
[V:2] BAG2B4 | 
[V:3] dcBAG4- | 
[V:4] G,,2G,3F,E,D, | 
[V:1] E8- :
[V:2] z2c4BA | 
[V:3] G2A2E2c2- | 
[V:4] C,2A,,4A,,2 | 
[V:1] E8 :
[V:2] G2A2E4 | 
[V:3] c2BAG2A2 | 
[V:4] C,4C,4- | 
[V:1] E8 | 
[V:2] z2c4c2 | 
[V:3] E2A4G2- | 
[V:4] C,2A,,3B,,C,D, | 
[V:1] G8- :
[V:2] =B2c2G4 | 
[V:3] G2G2c2C2- | 
[V:4] E,2C,3D,E,F, | 
[V:1] G8 :
[V:2] z2B4B2 | 
[V:3] CDEFG2D2- | 
[V:4] G,2G,,3A,,B,,C, | 
[V:1] F8 | 
[V:2] A2B2F4 | 
[V:3] DEF2B2A2 | 
[V:4] D,2B,,3C,D,2 | 
[V:1] D8 :
[V:2] GABcd2B2 | 
[V:3] B3A/G/F4 | 
[V:4] z2G,,A,,B,,C,D,2 | 
[V:1] E8- :
[V:2] c6A2 | 
[V:3] G2A3Bc2- | 
[V:4] C,2A,,2A,,4 | 
[V:1] E8 | 
[V:2] G2c3BG2 | 
[V:3] c2c2G2c2 | 
[V:4] E,2C,2C,4 | 
[V:1] D8- :
[V:2] B6G2 | 
[V:3] F2G3AB2 | 
[V:4] B,,2G,,2G,,4 | 
[V:1] D8- :
[V:2] F2B3AF2 | 
[V:3] A2d2D4 | 
[V:4] D,2B,,2B,,4 | 
[V:1] D8 | 
[V:2] z2G4F2 | 
[V:3] B6A2 | 
[V:4] G,,3A,,B,,C,D,2 | 
[V:1] [M:3/1]D8 :
[V:2] D2G3FD2 | 
[V:3] B6G2 | 
[V:4] B,,2G,,2G,,4 | 
[V:1] D4 | 
[V:2] z2B2 :
[V:3] G4 :
[V:4] G,,4 :
[V:1] E4- [I:setbarnb 97]:
[V:2] A2G2 | 
[V:3] E4 | 
[V:4] C,4 | 
[V:1] E4E4 | 
[V:2] c4z2c2 | 
[V:3] A4G2A2 | 
[V:4] z2A,,2C,2A,,2 | 
[V:1] F8 :
[V:2] B2A2d4 | 
[V:3] F3DD4 | 
[V:4] D,4z2F,2 | 
[V:1] F4 | 
[V:2] z2f2 :
[V:3] A2B2 :
[V:4] D,2B,,2 :
[V:1] A4- [I:setbarnb 100]:
[V:2] d2c2 | 
[V:3] A3F | 
[V:4] F,4 | 
[V:1] A4G4 | 
[V:2] f4z2c2- | 
[V:3] F3CE3F | 
[V:4] z2F,,2C,4 | 
[V:1] E4F4- :
[V:2] c2c2d2c2- | 
[V:3] G2A2B2A2 | 
[V:4] C,4B,,2C,2 | 
[V:1] F4 | 
[V:2] c2=B2 :
[V:3] F4 :
[V:4] D,4 :
[V:1] E4- [I:setbarnb 103]:
[V:2] c3B | 
[V:3] G4 | 
[V:4] C,4 | 
[V:1] E8 | 
[V:2] A2G2z2G2 | 
[V:3] z4c3B | 
[V:4] C,3B,,A,,2G,,2 | 
[V:1] [M:3/1]E8E4 | 
[V:2] [M:3/1]c8c4 | 
[V:3] [M:3/1]A8G4 | 
[V:4] [M:3/1]A,,4C,2D,2E,4 | 
[V:1] F8F4 | 
[V:2] d8d4 | 
[V:3] A8B4 | 
[V:4] D,8D,4 | 
[V:1] G8G4 | 
[V:2] e8e4 | 
[V:3] c8C4 | 
[V:4] C,8C,4 | 
[V:1] B8A4 | 
[V:2] d6B2c4 | 
[V:3] G8F4- | 
[V:4] G,,8z4 | 
[V:1] F4G8 | 
[V:2] f8e4 | 
[V:3] F4c8 | 
[V:4] z12 | 
[V:1] F12 | 
[V:2] f8z4 | 
[V:3] d8D4 | 
[V:4] B,,8B,,4 | 
[V:1] [M:2/1]c8- :
[V:2] [M:2/1]z8 | 
[V:3] [M:2/1]E2F3GA2- | 
[V:4] [M:2/1]A,,4F,,2F,2- | 
[V:1] c8 :
[V:2] z8 | 
[V:3] AFB4A2 | 
[V:4] F,2E,D,C,4 | 
[V:1] d8 | 
[V:2] f4d2f2- | 
[V:3] B2F2B4 | 
[V:4] B,,4B,,4 | 
[V:1] c8 :
[V:2] f2e2c2_e2- | 
[V:3] A2G2c4 | 
[V:4] F,,2C,4C,2 | 
[V:1] B8- :
[V:2] e2d2B2d2- | 
[V:3] GABcd3D | 
[V:4] _E,2G,4G,,2 | 
[V:1] B8 | 
[V:2] d2B2G2d2- | 
[V:3] G4d4 | 
[V:4] G,,4z2G,2 | 
[V:1] A8- :
[V:2] d2c2A2c2- | 
[V:3] z2A2c2A2- | 
[V:4] D,2F,4F,2 | 
[V:1] A8- :
[V:2] c2A3GFE | 
[V:3] ABc2F2c2 | 
[V:4] F,,4F,,2F,2- | 
[V:1] A8 | 
[V:2] DEFGABc2- | 
[V:3] d2c3BA2- | 
[V:4] F,G,A,3G,F,2 | 
[V:1] c8- :
[V:2] cBA3GFE | 
[V:3] AGF2E2A2- | 
[V:4] F,,3G,,A,,3G,, | 
[V:1] c8 :
[V:2] F2EDC4 | 
[V:3] A2G4^F2 | 
[V:4] F,,2G,,2A,,4 | 
[V:1] B8 | 
[V:2] D2d3ef2- | 
[V:3] G3ABcd2 | 
[V:4] G,,2G,4D,2- | 
[V:1] A8 :
[V:2] fec4c2 | 
[V:3] z4A2c2- | 
[V:4] D,2F,4C,2- | 
[V:1] G8- :
[V:2] _e3dcBc2 | 
[V:3] cBG2z4 | 
[V:4] C,2_E,3D,C,B,, | 
[V:1] G8 | 
[V:2] G2d2e4 | 
[V:3] z4c4 | 
[V:4] C,2G,,2C,4 | 
[V:1] F8- :
[V:2] f2d2c2d2- | 
[V:3] A2B2c2F2- | 
[V:4] D,2B,,2A,,2B,,2- | 
[V:1] F8- :
[V:2] dcB2A2B2- | 
[V:3] F2F2D4 | 
[V:4] B,,C,D,E,F,2B,,2 | 
[V:1] F8 | 
[V:2] BAF2d4 | 
[V:3] d3cBAB2- | 
[V:4] z2D,3C,B,,A,, | 
[V:1] [M:2/1]B8 :
[V:2] z4z2D2 | 
[V:3] BAGFG4 | 
[V:4] G,,2A,,2B,,4 | 
[V:1] c4 | 
[V:2] E2F2- :
[V:3] A4 :
[V:4] A,,2F,,2 :
[V:1] B4 [I:setbarnb 130]:
[V:2] F2E2 | 
[V:3] z4 | 
[V:4] G,,4 | 
[V:1] A8 | 
[V:2] FGABc4 | 
[V:3] z2F3GAB | 
[V:4] F,,3G,,A,,B,,C,D, | 
[V:1] G8- :
[V:2] z2_e4d2 | 
[V:3] c2G3AB2 | 
[V:4] _E,3D,C,2B,,2 | 
[V:1] G4 | 
[V:2] c2B2- :
[V:3] _E2G2- :
[V:4] C,2G,,2- :
[V:1] B4- [I:setbarnb 133]:
[V:2] B2AG | 
[V:3] G2F=E | 
[V:4] G,,2B,,2- | 
[V:1] B4A4 | 
[V:2] F4c4- | 
[V:3] D3EF4 | 
[V:4] B,,2A,,G,,F,,4 | 
[V:1] G4F4- :
[V:2] c2B6 | 
[V:3] _E4D2F2- | 
[V:4] z4B,,4 | 
[V:1] F4 | 
[V:2] A4- :
[V:3] FGAB :
[V:4] D,4 :
[V:1] E4- [I:setbarnb 136]:
[V:2] A2G2- | 
[V:3] c4 | 
[V:4] A,,2C,2- | 
[V:1] E8 | 
[V:2] G4A4 | 
[V:3] z4c4 | 
[V:4] C,2C,2A,,4 | 
[V:1] [M:3/1]G8A4 | 
[V:2] [M:3/1]D6E2F4 | 
[V:3] [M:3/1]B8c4 | 
[V:4] [M:3/1]G,,8F,,4 | 
[V:1] G4F8 | 
[V:2] D6E2F4 | 
[V:3] B8B4 | 
[V:4] G,,2A,,2B,,2C,2D,4 | 
[V:1] E12 | 
[V:2] G4c8 | 
[V:3] c4A4G4- | 
[V:4] C,12 | 
[V:1] G8F4 | 
[V:2] B6c2d4 | 
[V:3] G2A2B8 | 
[V:4] _E,8D,4 | 
[V:1] E4D8 | 
[V:2] G4z4z4 | 
[V:3] c4c4=B4 | 
[V:4] C,4G,8 | 
[V:1] C12- | 
[V:2] G6E2F4 | 
[V:3] c6B2A2G2 | 
[V:4] C,2B,,2A,,2G,,2F,,4- | 
[V:1] C12- | 
[V:2] A4G8 | 
[V:3] F8E4 | 
[V:4] F,,4C,8 | 
[V:1] C12- | 
[V:2] F2G2A2B2c2d2 | 
[V:3] A2B2c2B2A4 | 
[V:4] F,,6G,,2A,,2B,,2 | 
[V:1] C12- | 
[V:2] e2f2g6f2 | 
[V:3] G2F2E2D2C4 | 
[V:4] C,6D,2E,4 | 
[V:1] C12- | 
[V:2] f8e4 | 
[V:3] F4G8 | 
[V:4] F,4C,8 | 
[V:1] C12 |]  
[V:2] f12 |]  
[V:3] F12 |]  
[V:4] F,,12 |]  



